images_sukapura_svg/cmd/lc_formatcelldialog.svg

<svg viewBox="0 0 24 24" xmlns="http://www.w3.org/2000/svg" xmlns:xlink="http://www.w3.org/1999/xlink"><linearGradient id="a" gradientUnits="userSpaceOnUse" x1="13" x2="13" y1="23" y2="5"><stop offset="0" stop-color="#f7f7f7"/><stop offset=".22222222" stop-color="#fff"/><stop offset=".83333331" stop-color="#fff"/><stop offset="1" stop-color="#f7f7f7"/></linearGradient><linearGradient id="b" gradientUnits="userSpaceOnUse" x1="19.5" x2="19.5" y1="21.500001" y2="14.5"><stop offset="0" stop-color="#cfcfcf"/><stop offset=".07142864" stop-color="#e7e7e7"/><stop offset=".07142864" stop-color="#fff"/><stop offset=".5" stop-color="#f3f3f3"/><stop offset=".93333334" stop-color="#f9f9f9"/><stop offset=".93333334" stop-color="#fcfcfc"/><stop offset="1" stop-color="#fff"/></linearGradient><linearGradient id="c" gradientUnits="userSpaceOnUse" x1="19.428571" x2="19.428571" y1="18.25" y2="21.285715"><stop offset="0" stop-color="#f8f8f8"/><stop offset="1" stop-color="#fff"/></linearGradient><linearGradient id="d" gradientUnits="userSpaceOnUse" x1="12" x2="12" y1="3" y2="21"><stop offset="0" stop-color="#efefef"/><stop offset=".33333334" stop-color="#fff"/><stop offset=".8888889" stop-color="#fff"/><stop offset="1" stop-color="#f5f5f5"/></linearGradient><filter id="e" color-interpolation-filters="sRGB" height="1.094553" width="1.097492" x="-.048746" y="-.047277"><feGaussianBlur stdDeviation=".36559322"/></filter><path d="m3 4h18v18.559322h-18z" filter="url(#e)" opacity=".15" stroke-width="1.015418"/><path d="m3 3h18v18h-18z" fill="url(#d)"/><path d="m3 2c-.554 0-1 .446-1 1v18c0 .554.446 1 1 1h18c.554 0 1-.446 1-1v-18c0-.554-.446-1-1-1zm0 1h5v2h-5zm6 0h6v2h-6zm7 0h5v2h-5zm-13 3h5v3h-5zm6 0h6v3h-6zm7 0h5v3h-5zm-13 4h5v3h-5zm6 0h6v3h-6zm7 0h5v3h-5zm-13 4h5v3h-5zm6 0h6v3h-6zm7 0h5v3h-5zm-13 4h5v3h-5zm6 0h6v3h-6zm7 0h5v3h-5z" fill="#919194"/><path d="m3 2c-.554 0-1 .446-1 1v2 1 15c0 .554.446 1 1 1h18c.554 0 1-.446 1-1v-15-3c0-.554-.446-1-1-1zm0 1h5 1 6 1 5v2 1 3 1 3 1 3 1 3h-5-1-6-1-5v-3-1-3-1-3-1-3-1z" fill="#69696e"/><path d="m9 10h6v3h-6z" fill="#ff9f0a" stroke-width="1.06066"/><g fill="#c93400"><path d="m-9-13h1v3h-1z" stroke-width=".387298" transform="scale(-1)"/><path d="m9-16h1v7.999997h-1z" stroke-width=".948683" transform="rotate(90)"/><path d="m-16-13h1v3h-1z" stroke-width=".387298" transform="scale(-1)"/><path d="m13-16h1v8h-1z" stroke-width=".948683" transform="rotate(90)"/></g><path d="m16 13h7v10h-7z" fill="url(#a)"/><path d="m16 12c-.554 0-1 .446-1 1v10c0 .554.446 1 1 1h7c.554 0 1-.446 1-1v-10c0-.554-.446-1-1-1zm0 1h7v10h-7z" fill="#848489"/><g stroke-width=".607143"><path d="m17 14h5v8h-5z" fill="#626262"/><path d="m17.5 14.5h4v7h-4z" fill="url(#b)"/><path d="m18 16h3v2h-3z" fill="#dadada"/><path d="m18 18h3v3h-3z" fill="url(#c)"/></g></svg>

<?xml version="1.0" encoding="UTF-8" standalone="no"?>
<svg
   xmlns:dc="http://purl.org/dc/elements/1.1/"
   xmlns:cc="http://creativecommons.org/ns#"
   xmlns:rdf="http://www.w3.org/1999/02/22-rdf-syntax-ns#"
   xmlns:svg="http://www.w3.org/2000/svg"
   xmlns="http://www.w3.org/2000/svg"
   xmlns:sodipodi="http://sodipodi.sourceforge.net/DTD/sodipodi-0.dtd"
   xmlns:inkscape="http://www.inkscape.org/namespaces/inkscape"
   viewBox="0 0 24 24"
   version="1.1"
   id="svg26"
   sodipodi:docname="lc_formatcelldialog.svg"
   inkscape:version="0.92.3 (unknown)"
   inkscape:export-filename="/home/rizmut/Dokumen/Rizmut/Github/libreoffice-style-sukapura/images_sukapura/cmd/lc_entirerow.png"
   inkscape:export-xdpi="96"
   inkscape:export-ydpi="96">
  <metadata
     id="metadata32">
    <rdf:RDF>
      <cc:Work
         rdf:about="">
        <dc:format>image/svg+xml</dc:format>
        <dc:type
           rdf:resource="http://purl.org/dc/dcmitype/StillImage" />
        <dc:title></dc:title>
      </cc:Work>
    </rdf:RDF>
  </metadata>
  <defs
     id="defs30">
    <linearGradient
       id="a-3"
       gradientUnits="userSpaceOnUse"
       x1="11"
       x2="11"
       y1="21"
       y2="3"
       gradientTransform="translate(2,2)">
      <stop
         offset="0"
         stop-color="#f7f7f7"
         id="stop2-6" />
      <stop
         offset=".22222222"
         stop-color="#fff"
         id="stop4-7" />
      <stop
         offset=".83333331"
         stop-color="#fff"
         id="stop6-5" />
      <stop
         offset="1"
         stop-color="#f7f7f7"
         id="stop8-3" />
    </linearGradient>
    <linearGradient
       id="b-3"
       gradientUnits="userSpaceOnUse"
       x1="12.117647"
       x2="12.117647"
       y1="17.352942"
       y2="5.8235288"
       gradientTransform="matrix(0.60714286,0,0,0.60714286,12.142857,10.964286)">
      <stop
         offset="0"
         stop-color="#cfcfcf"
         id="stop11-5" />
      <stop
         offset="0.07142864"
         stop-color="#e7e7e7"
         id="stop13-6" />
      <stop
         offset="0.07142864"
         stop-color="#fff"
         id="stop15" />
      <stop
         offset=".5"
         stop-color="#f3f3f3"
         id="stop17" />
      <stop
         offset="0.93333334"
         stop-color="#f9f9f9"
         id="stop19" />
      <stop
         offset="0.93333334"
         stop-color="#fcfcfc"
         id="stop21" />
      <stop
         offset="1"
         stop-color="#fff"
         id="stop23" />
    </linearGradient>
    <linearGradient
       id="c"
       gradientUnits="userSpaceOnUse"
       x1="12"
       x2="12"
       y1="12"
       y2="17"
       gradientTransform="matrix(0.60714286,0,0,0.60714286,12.142857,10.964286)">
      <stop
         offset="0"
         stop-color="#f8f8f8"
         id="stop26" />
      <stop
         offset="1"
         stop-color="#fff"
         id="stop28" />
    </linearGradient>
  </defs>
  <sodipodi:namedview
     pagecolor="#ffffff"
     bordercolor="#666666"
     borderopacity="1"
     objecttolerance="10"
     gridtolerance="10"
     guidetolerance="10"
     inkscape:pageopacity="0"
     inkscape:pageshadow="2"
     inkscape:window-width="1366"
     inkscape:window-height="706"
     id="namedview28"
     showgrid="true"
     inkscape:zoom="13.906433"
     inkscape:cx="3.993866"
     inkscape:cy="10.286595"
     inkscape:window-x="0"
     inkscape:window-y="0"
     inkscape:window-maximized="1"
     inkscape:current-layer="svg26">
    <inkscape:grid
       type="xygrid"
       id="grid850" />
  </sodipodi:namedview>
  <linearGradient
     id="a"
     gradientUnits="userSpaceOnUse"
     x1="12"
     x2="12"
     y1="3"
     y2="21">
    <stop
       offset="0"
       stop-color="#efefef"
       id="stop2" />
    <stop
       offset=".33333334"
       stop-color="#fff"
       id="stop4" />
    <stop
       offset=".8888889"
       stop-color="#fff"
       id="stop6" />
    <stop
       offset="1"
       stop-color="#f5f5f5"
       id="stop8" />
  </linearGradient>
  <filter
     id="b"
     color-interpolation-filters="sRGB"
     height="1.094553"
     width="1.097492"
     x="-.048746"
     y="-.047277">
    <feGaussianBlur
       stdDeviation=".36559322"
       id="feGaussianBlur11" />
  </filter>
  <g
     id="g2471">
    <path
       id="path14"
       stroke-width="1.015418"
       opacity=".15"
       filter="url(#b)"
       d="m3 4h18v18.559322h-18z" />
    <path
       id="path16"
       fill="url(#a)"
       d="m3 3h18v18h-18z" />
    <path
       style="fill:#919194;fill-opacity:1"
       id="path18"
       d="M 3 2 C 2.446 2 2 2.446 2 3 L 2 21 C 2 21.554 2.446 22 3 22 L 21 22 C 21.554 22 22 21.554 22 21 L 22 3 C 22 2.446 21.554 2 21 2 L 3 2 z M 3 3 L 8 3 L 8 5 L 3 5 L 3 3 z M 9 3 L 15 3 L 15 5 L 9 5 L 9 3 z M 16 3 L 21 3 L 21 5 L 16 5 L 16 3 z M 3 6 L 8 6 L 8 9 L 3 9 L 3 6 z M 9 6 L 15 6 L 15 9 L 9 9 L 9 6 z M 16 6 L 21 6 L 21 9 L 16 9 L 16 6 z M 3 10 L 8 10 L 8 13 L 3 13 L 3 10 z M 9 10 L 15 10 L 15 13 L 9 13 L 9 10 z M 16 10 L 21 10 L 21 13 L 16 13 L 16 10 z M 3 14 L 8 14 L 8 17 L 3 17 L 3 14 z M 9 14 L 15 14 L 15 17 L 9 17 L 9 14 z M 16 14 L 21 14 L 21 17 L 16 17 L 16 14 z M 3 18 L 8 18 L 8 21 L 3 21 L 3 18 z M 9 18 L 15 18 L 15 21 L 9 21 L 9 18 z M 16 18 L 21 18 L 21 21 L 16 21 L 16 18 z " />
    <path
       id="path22"
       d="M 3 2 C 2.446 2 2 2.446 2 3 L 2 5 L 2 6 L 2 21 C 2 21.554 2.446 22 3 22 L 21 22 C 21.554 22 22 21.554 22 21 L 22 6 L 22 3 C 22 2.446 21.554 2 21 2 L 3 2 z M 3 3 L 8 3 L 9 3 L 15 3 L 16 3 L 21 3 L 21 5 L 21 6 L 21 9 L 21 10 L 21 13 L 21 14 L 21 17 L 21 18 L 21 21 L 16 21 L 15 21 L 9 21 L 8 21 L 3 21 L 3 18 L 3 17 L 3 14 L 3 13 L 3 10 L 3 9 L 3 6 L 3 5 L 3 3 z "
       style="fill:#69696e;fill-opacity:1" />
    <rect
       y="10"
       x="9"
       height="3"
       width="6"
       id="rect3720"
       style="fill:#ff9f0a;fill-opacity:1;stroke-width:1.06066012" />
    <rect
       style="fill:#c93400;fill-opacity:1;stroke-width:0.38729835"
       id="rect858"
       width="1"
       height="3"
       x="-9"
       y="-13"
       transform="scale(-1)" />
    <rect
       transform="rotate(90)"
       y="-16"
       x="9"
       height="7.9999971"
       width="1"
       id="rect860"
       style="fill:#c93400;fill-opacity:1;stroke-width:0.94868332" />
    <rect
       transform="scale(-1)"
       y="-13"
       x="-16"
       height="3"
       width="1"
       id="rect895"
       style="fill:#c93400;fill-opacity:1;stroke-width:0.38729835" />
    <rect
       style="fill:#c93400;fill-opacity:1;stroke-width:0.94868332"
       id="rect899"
       width="1"
       height="8"
       x="13"
       y="-16"
       transform="rotate(90)" />
  </g>
  <g
     id="g895">
    <path
       id="path31"
       d="m 16,13 h 7 v 10 h -7 z"
       style="fill:url(#a-3)"
       inkscape:connector-curvature="0"
       sodipodi:nodetypes="ccccc" />
    <path
       id="path33"
       d="m 16,12 c -0.554,0 -1,0.446 -1,1 v 10 c 0,0.554 0.446,1 1,1 h 7 c 0.554,0 1,-0.446 1,-1 V 13 c 0,-0.554 -0.446,-1 -1,-1 z m 0,1 h 7 v 10 h -7 z"
       style="fill:#848489"
       inkscape:connector-curvature="0"
       sodipodi:nodetypes="sssssssssccccc" />
    <path
       id="path35"
       d="m 17,14 h 5 v 8 h -5 z"
       style="fill:#626262;stroke-width:0.60714287"
       inkscape:connector-curvature="0"
       sodipodi:nodetypes="ccccc" />
    <path
       id="path37"
       d="m 17.5,14.5 h 4 v 7 h -4 z"
       style="fill:url(#b-3);stroke-width:0.60714287"
       inkscape:connector-curvature="0"
       sodipodi:nodetypes="ccccc" />
    <path
       id="path39"
       d="m 18,16 h 3 v 2 h -3 z"
       style="fill:#dadada;stroke-width:0.60714287"
       inkscape:connector-curvature="0"
       sodipodi:nodetypes="ccccc" />
    <path
       id="path41"
       d="m 18,18 h 3 v 3 h -3 z"
       style="fill:url(#c);stroke-width:0.60714287"
       inkscape:connector-curvature="0"
       sodipodi:nodetypes="ccccc" />
  </g>
</svg>
